X: 1570
T: Angus And Eilidh MacKenzie's
R: reel
M: 4/4
K: Adorian
A2 eA Bede|gede BedB|G2 de B2 AB|dBed B2 GB|
A2 eA Bede|gede BedA|B2 GB Aede|1 ge ~e2 BA ~A2:|2 ge ~e2 BAAd||
eB ~B2 eBde|ge ~e2 Bedg|B2 AB ~G3 A|B2 AB GABd|
eB ~B2 eBde|ge ~e2 Bedg|B2 GB Aede|ge ~e2 BABd|
eB ~B2 eBde|ge ~e2 Bedg|B2 AB ~G3 A|B2 AB GABG|
A2 eA Bede|gede BedA|B2 GB Aede|ge ~e2 BAA2||

